!!!OTL: Song of a Soldier
!!!ONM: 12.
**kern
*clefG2
*k[f#]
*G:
*M3/8
*MM112
{8d
=1
4g
8g
=2
(8e
8f#)
8g
=3
4.b
=4
4g
8g
=5
4b
8b
=6
(8g
8a)
8b
=7
4a
8r
=8
4r}
{8d
=9
4.g
=10
4d
8g
=11
4.b
=12
4g
8d
=13
4a
8a
=14
4g}
{8f#
=15
4g
16g
16g
=16
4g
8g
=17
(8d
8f#)
8g
=18
4.b
=19
4g}
{8g
=20
4a
8a
=21
4g
8f#
=22
4g}
==
*-
!!!CNT: Folksongs of Maritime Canada
!!!MRD: 1928///-1932///
!!!OCL: Helen Creighton
!!!YOR: Songs and Ballads from Nova Scotia
!!!PPR: J.M. Dent & Sons, Limited
!!!PPP: Toronto, Canada
!!!PDT: 1932///
!!!reprint: Dover Publications, 1992: ISBN 0-486-21703-5
!!!ENC1: Craig Stuart Sapp (music and bibliographic data)                       
!!!ENC2: Marcus Pearce (phrase markings and key designations)                   
!!!ENC3: Darrell Conklin (phrase markings and key designations)   
!!!END: 2002/04/10/
!!!EEV: 2004/06/05
!!!MPN: Mr. Allan Hartlan
!!!PPG: 25
!!!EFL: 12/152
!!!ARE: Canada; Nova Scotia
!!!verses: 7
!!!VTS: 2114741701
